X: 29
T: No_124_Blackbird_Dance_Song.krn
N: Derived from No_124_Blackbird_Dance_Song.krn
%%abc-version 2.0
%%abcx-abcm2ps-target-version 5.9.1 (29 Sep 2008)
%%abc-creator hum2abc beta
%%abcx-conversion-date 2019/03/15 08:38:45
%%humdrum-veritas 4223218371
%%humdrum-veritas-data 1657814641
%%linebreak <none>
%%barnumbers 0
L: 1/16
M: 2/4
%%staves {1 2}
V: 1 clef=bass
V: 2 clef=bass
K: G
[V:1] [K:clef=bass][M:2/4]z2 B,B,B,4 | 
[V:2] [K:clef=bass][M:2/4]G,,4G,,4 | 
[V:1] (!accent!A,G,)G,G,G,4 | 
[V:2] G,,4G,,4 | 
[V:1] (!accent!G,E,)E,E,E,4 | 
[V:2] z8 | 
[V:1] E,E,G,G, G,G,G,2 | 
[V:2] z8 | 
[V:1] A,2G,E, G,2 z2 | 
[V:2] z8 | 
[V:1] z2 E,E,E,4 | 
[V:2] z8 | 
[V:1] B,B,(B,A,)A,4 | 
[V:2] z8 | 
[V:1] (!accent!A,G,)G,G,G,4 | 
[V:2] z8 | 
[V:1] !accent!G,G,E,E,E,4 | 
[V:2] z8 | 
[V:1] E,2G,G, G,G,G,2 ||  
[V:2] z8 ||  
[V:1] [M:3/4]A,2(G,E,)G,4z4 ||  
[V:2] [M:3/4]z12 ||  
[V:1] [M:2/4](G,E,)E,2E,4 | 
[V:2] [M:2/4]z8 | 
[V:1] !accent!B,A,G,G,G,4 ||  
[V:2] z8 ||  
[V:1] [M:5/8]G,3E,G,2E,E,D,2 ||  
[V:2] [M:5/8](3:2:1z15 ||  
[V:1] [M:2/4]!accent!B,A,G,G,G,4 ||  
[V:2] [M:2/4]z8 ||  
[V:1] [M:5/8]G,3E,G,2E,E,D,2 ||  
[V:2] [M:5/8](3:2:1z15 ||  
[V:1] [M:2/4]!accent!B,A,G,G,G,4 ||  
[V:2] [M:2/4]z8 ||  
[V:1] [M:5/8]G,3E,G,2E,E,D,2 |]  
[V:2] [M:5/8](3:2:1z15 |]  



